X:1
T:Calliope House
M:6/8
L:1/8
K:D
A|"D"dAA fAA|eAA "F#m"fAA|"Em"Bee e2d|efd "G"BdB|!
"D"ABA A2F|A2Bd2e|1"D"f2a fed|"A"e3-e2:|2"D"faf "A"edB|"D"d3-d3|]!
"D"a3 faa|eaa "F#m"faa|"Em"g3 fgf|efd "G"BdB|!
"D"ABA A2F|A2Bd2e|1"D"f2a fed|"A"e3-e3:|2"D"faf "A"edB|"D"d3-d2|]!
